X: 666
T: Ida Red
B: jims roots
M:2/4
L:1/8
Q: 1/4=100
K:Gmaj
V:1 
{_b}=b4{_b}=b4 | baba g2eg- | g gbg aged | egga g2g2 |
{_b}=b4{_b}=b4 | baba g2eg- | g gbg aged | egga g2g2 ||
B4{^c}d4- | d2d2 ed3 | [d4g]-[d2g] y{_B}=B3A | GGGE DDEG |
{_B}=B4 y{_B}=B3A | GGGE DDEG | {_B}=B3e BAGG | GEDD EGG2 ||
{_B}=B3A BAG2 | GEDD EGG2 | {_B}=B3e BAGG | GEDD EGG2 | [G8B] ||
% abcbook-tune_id 6298c25d077675fb2c619cbe


% abcbook-boost 0
% abcbook-tablature 
% abcbook-transpose 
% abcbook-lastupdated 1654178398966
% abcbook-soundfonts 
% abcbook-repeats 1


